flaticon/emoticons/flirt-1.svg

<svg xmlns="http://www.w3.org/2000/svg" width="32" height="32" viewBox="0 0 24 24">
    <path d="M 23.917969 10.625 C 23.757812 9.949219 23.371094 9.363281 22.886719 9.066406 C 22.5625 8.867188 22.214844 8.800781 21.882812 8.882812 C 21.808594 8.898438 21.734375 8.925781 21.664062 8.960938 C 20.730469 6.6875 19.273438 5.214844 17.773438 4.265625 L 18.316406 3.179688 C 18.417969 2.980469 18.335938 2.742188 18.140625 2.640625 C 17.941406 2.542969 17.699219 2.625 17.601562 2.820312 L 17.082031 3.863281 C 16.832031 3.730469 16.589844 3.613281 16.347656 3.503906 L 16.738281 2.324219 C 16.808594 2.117188 16.695312 1.890625 16.488281 1.820312 C 16.277344 1.75 16.050781 1.863281 15.980469 2.074219 L 15.601562 3.210938 C 15.324219 3.109375 15.054688 3.027344 14.796875 2.953125 L 15.140625 1.925781 C 15.210938 1.714844 15.097656 1.488281 14.886719 1.417969 C 14.675781 1.347656 14.449219 1.460938 14.382812 1.671875 L 14.019531 2.761719 C 13.511719 2.65625 13.078125 2.597656 12.757812 2.566406 L 12.757812 1.800781 C 12.757812 1.578125 12.582031 1.398438 12.359375 1.398438 C 12.136719 1.398438 11.960938 1.578125 11.960938 1.800781 L 11.960938 2.539062 C 11.75 2.550781 11.382812 2.582031 10.90625 2.65625 L 10.753906 1.734375 C 10.71875 1.515625 10.511719 1.367188 10.292969 1.40625 C 10.074219 1.441406 9.929688 1.648438 9.964844 1.867188 L 10.121094 2.804688 C 9.691406 2.902344 9.21875 3.035156 8.71875 3.214844 L 8.339844 2.074219 C 8.269531 1.863281 8.042969 1.75 7.832031 1.820312 C 7.625 1.890625 7.511719 2.117188 7.578125 2.328125 L 7.972656 3.507812 C 7.628906 3.660156 7.277344 3.835938 6.925781 4.035156 L 6.316406 2.820312 C 6.21875 2.625 5.980469 2.542969 5.78125 2.640625 C 5.582031 2.742188 5.503906 2.980469 5.601562 3.179688 L 6.242188 4.460938 C 5.890625 4.703125 5.542969 4.976562 5.207031 5.28125 L 4.242188 4.316406 C 4.085938 4.160156 3.832031 4.160156 3.675781 4.316406 C 3.519531 4.472656 3.519531 4.726562 3.675781 4.882812 L 4.632812 5.839844 C 3.402344 7.144531 2.375 8.972656 1.902344 11.523438 C 1.894531 11.554688 1.890625 11.589844 1.886719 11.621094 C 1.785156 11.59375 1.679688 11.574219 1.574219 11.574219 C 0.691406 11.574219 0 12.527344 0 13.746094 C 0 14.960938 0.691406 15.914062 1.574219 15.914062 C 1.738281 15.914062 1.894531 15.875 2.046875 15.808594 C 2.328125 16.875 2.792969 17.878906 3.429688 18.757812 C 4.707031 20.519531 7.21875 22.601562 11.9375 22.601562 C 12.011719 22.601562 12.082031 22.601562 12.15625 22.597656 C 12.230469 22.601562 12.304688 22.601562 12.375 22.601562 C 17.09375 22.601562 19.605469 20.519531 20.882812 18.757812 C 22.035156 17.171875 22.621094 15.179688 22.574219 13.128906 C 22.589844 13.128906 22.601562 13.132812 22.617188 13.132812 C 22.707031 13.132812 22.796875 13.125 22.886719 13.101562 C 23.742188 12.898438 24.199219 11.808594 23.917969 10.625 Z M 1.871094 14.996094 C 1.789062 15.0625 1.6875 15.113281 1.574219 15.113281 C 1.207031 15.113281 0.800781 14.550781 0.800781 13.746094 C 0.800781 12.9375 1.207031 12.375 1.574219 12.375 C 1.640625 12.375 1.710938 12.394531 1.777344 12.429688 C 1.757812 12.644531 1.746094 12.855469 1.738281 13.070312 C 1.738281 13.082031 1.738281 13.097656 1.738281 13.109375 C 1.734375 13.289062 1.734375 13.464844 1.738281 13.640625 C 1.742188 13.695312 1.742188 13.75 1.746094 13.804688 C 1.753906 13.949219 1.761719 14.09375 1.777344 14.234375 C 1.78125 14.292969 1.785156 14.347656 1.789062 14.40625 C 1.808594 14.578125 1.832031 14.753906 1.859375 14.925781 C 1.863281 14.949219 1.867188 14.972656 1.871094 14.996094 Z M 20.234375 18.289062 C 18.507812 20.667969 15.796875 21.851562 12.160156 21.800781 L 12.152344 21.800781 C 8.515625 21.855469 5.804688 20.667969 4.078125 18.289062 C 3.253906 17.152344 2.746094 15.785156 2.585938 14.34375 C 2.582031 14.3125 2.582031 14.28125 2.578125 14.25 C 2.558594 14.019531 2.542969 13.789062 2.539062 13.558594 C 2.535156 13.460938 2.539062 13.359375 2.539062 13.257812 C 2.542969 13.09375 2.546875 12.933594 2.558594 12.769531 C 2.566406 12.652344 2.574219 12.535156 2.585938 12.414062 C 2.613281 12.167969 2.640625 11.917969 2.6875 11.667969 C 3.125 9.296875 4.0625 7.601562 5.183594 6.386719 L 5.675781 6.882812 C 5.753906 6.960938 5.855469 7 5.957031 7 C 6.0625 7 6.164062 6.960938 6.242188 6.882812 C 6.398438 6.726562 6.398438 6.472656 6.242188 6.316406 L 5.75 5.828125 C 6.023438 5.578125 6.304688 5.355469 6.589844 5.152344 L 6.800781 5.578125 C 6.871094 5.71875 7.011719 5.800781 7.160156 5.800781 C 7.21875 5.800781 7.28125 5.785156 7.335938 5.757812 C 7.535156 5.660156 7.613281 5.417969 7.515625 5.222656 L 7.265625 4.71875 C 7.582031 4.535156 7.902344 4.371094 8.214844 4.234375 L 8.378906 4.726562 C 8.433594 4.894531 8.589844 5 8.757812 5 C 8.800781 5 8.84375 4.992188 8.886719 4.980469 C 9.09375 4.910156 9.207031 4.683594 9.136719 4.472656 L 8.957031 3.9375 C 9.417969 3.773438 9.851562 3.652344 10.246094 3.566406 L 10.363281 4.265625 C 10.398438 4.460938 10.566406 4.601562 10.757812 4.601562 C 10.78125 4.601562 10.800781 4.597656 10.824219 4.59375 C 11.042969 4.558594 11.1875 4.351562 11.152344 4.132812 L 11.035156 3.421875 C 11.445312 3.363281 11.765625 3.34375 11.960938 3.335938 L 11.960938 4.199219 C 11.960938 4.421875 12.136719 4.601562 12.359375 4.601562 C 12.582031 4.601562 12.757812 4.421875 12.757812 4.199219 L 12.757812 3.363281 C 13.027344 3.386719 13.371094 3.429688 13.769531 3.507812 L 13.578125 4.074219 C 13.507812 4.28125 13.621094 4.511719 13.832031 4.578125 C 13.875 4.59375 13.917969 4.601562 13.957031 4.601562 C 14.125 4.601562 14.28125 4.496094 14.339844 4.328125 L 14.550781 3.683594 C 14.808594 3.753906 15.078125 3.839844 15.359375 3.9375 L 15.179688 4.472656 C 15.109375 4.683594 15.222656 4.910156 15.433594 4.980469 C 15.472656 4.992188 15.515625 5 15.558594 5 C 15.726562 5 15.882812 4.894531 15.9375 4.726562 L 16.101562 4.234375 C 16.3125 4.328125 16.523438 4.433594 16.738281 4.546875 L 16.402344 5.222656 C 16.300781 5.417969 16.382812 5.660156 16.578125 5.757812 C 16.636719 5.785156 16.699219 5.800781 16.757812 5.800781 C 16.90625 5.800781 17.046875 5.71875 17.117188 5.578125 L 17.429688 4.953125 C 18.835938 5.867188 20.199219 7.296875 21.039062 9.539062 L 21.035156 9.542969 L 21.109375 9.746094 C 21.210938 10.039062 21.300781 10.332031 21.382812 10.628906 C 21.394531 10.667969 21.40625 10.703125 21.414062 10.738281 C 21.492188 11.042969 21.566406 11.351562 21.625 11.667969 C 21.671875 11.933594 21.707031 12.203125 21.730469 12.46875 C 21.738281 12.515625 21.742188 12.558594 21.746094 12.605469 C 21.917969 14.671875 21.386719 16.703125 20.234375 18.289062 Z M 22.699219 12.324219 C 22.644531 12.335938 22.585938 12.335938 22.523438 12.324219 C 22.523438 12.308594 22.519531 12.292969 22.519531 12.277344 C 22.492188 12.027344 22.457031 11.773438 22.410156 11.523438 C 22.355469 11.214844 22.285156 10.917969 22.214844 10.632812 C 22.207031 10.597656 22.195312 10.5625 22.1875 10.527344 C 22.113281 10.253906 22.035156 9.992188 21.953125 9.738281 C 21.949219 9.730469 21.949219 9.722656 21.945312 9.714844 C 21.984375 9.6875 22.027344 9.667969 22.070312 9.660156 C 22.222656 9.625 22.371094 9.6875 22.46875 9.746094 C 22.769531 9.933594 23.027344 10.339844 23.140625 10.8125 C 23.324219 11.597656 23.054688 12.238281 22.699219 12.324219 Z M 22.699219 12.324219"/>
    <path d="M7.242188 7.898438C7.015625 7.882812 6.832031 8.050781 6.816406 8.273438 6.804688 8.492188 6.96875 8.683594 7.191406 8.695312 7.71875 8.730469 8.242188 9.003906 8.632812 9.449219 8.800781 9.640625 8.933594 9.851562 9.03125 10.070312 8.703125 9.910156 8.34375 9.816406 7.972656 9.792969 7.226562 9.742188 6.503906 9.988281 5.941406 10.484375 5.777344 10.628906 5.761719 10.882812 5.90625 11.046875 6.054688 11.214844 6.304688 11.230469 6.472656 11.085938 6.871094 10.730469 7.386719 10.550781 7.921875 10.589844 8.453125 10.625 8.941406 10.863281 9.292969 11.265625 9.371094 11.351562 9.480469 11.398438 9.59375 11.398438 9.636719 11.398438 9.679688 11.394531 9.722656 11.378906 9.875 11.328125 9.984375 11.1875 9.992188 11.027344 10.039062 10.289062 9.761719 9.523438 9.234375 8.921875 8.703125 8.316406 7.976562 7.945312 7.242188 7.898438zM16 7.398438C14.457031 7.398438 13.199219 8.65625 13.199219 10.199219 13.199219 11.742188 14.457031 13 16 13 17.542969 13 18.800781 11.742188 18.800781 10.199219 18.800781 8.65625 17.542969 7.398438 16 7.398438zM16 12.199219C14.894531 12.199219 14 11.300781 14 10.199219 14 9.097656 14.894531 8.199219 16 8.199219 17.101562 8.199219 18 9.097656 18 10.199219 18 11.300781 17.101562 12.199219 16 12.199219zM16 12.199219"/>
    <path d="M16.800781 10.199219C16.800781 10.640625 16.441406 11 16 11 15.558594 11 15.199219 10.640625 15.199219 10.199219 15.199219 9.757812 15.558594 9.398438 16 9.398438 16.441406 9.398438 16.800781 9.757812 16.800781 10.199219zM13.542969 14.945312C13.046875 14.945312 12.582031 15.164062 12.265625 15.546875 12.125 15.71875 12.148438 15.96875 12.316406 16.109375 12.488281 16.25 12.738281 16.226562 12.878906 16.054688 13.042969 15.859375 13.285156 15.746094 13.542969 15.746094 14.015625 15.746094 14.398438 16.128906 14.398438 16.601562 14.398438 17.074219 14.015625 17.460938 13.542969 17.460938 13.339844 17.460938 13.152344 17.390625 12.996094 17.261719 12.824219 17.121094 12.574219 17.148438 12.433594 17.316406 12.292969 17.488281 12.316406 17.738281 12.488281 17.878906 12.675781 18.035156 12.902344 18.144531 13.136719 18.203125 13.199219 18.25 13.257812 18.300781 13.304688 18.359375 13.445312 18.542969 13.507812 18.765625 13.480469 18.992188 13.449219 19.21875 13.335938 19.421875 13.15625 19.5625 12.972656 19.703125 12.75 19.765625 12.523438 19.738281 12.296875 19.710938 12.09375 19.597656 11.953125 19.414062 11.828125 19.253906 11.765625 19.066406 11.769531 18.863281 11.777344 18.644531 11.601562 18.457031 11.382812 18.453125 11.160156 18.464844 10.976562 18.621094 10.972656 18.839844 10.960938 19.226562 11.085938 19.605469 11.320312 19.90625 11.59375 20.253906 11.984375 20.476562 12.421875 20.53125 12.492188 20.539062 12.5625 20.546875 12.632812 20.546875 12.996094 20.546875 13.351562 20.421875 13.644531 20.195312 13.996094 19.921875 14.21875 19.53125 14.273438 19.09375 14.3125 18.765625 14.257812 18.441406 14.113281 18.152344 14.746094 17.917969 15.199219 17.3125 15.199219 16.601562 15.199219 15.6875 14.457031 14.945312 13.542969 14.945312zM13.542969 14.945312"/>
</svg>

<svg xmlns="http://www.w3.org/2000/svg" width="32" height="32" viewBox="0 0 24 24">
    <path d="M23.918 10.625c-.16-.676-.547-1.262-1.031-1.559-.325-.199-.672-.265-1.004-.183a.916.916 0 0 0-.219.078c-.934-2.274-2.39-3.746-3.89-4.695l.542-1.086a.401.401 0 0 0-.175-.54.405.405 0 0 0-.54.18l-.519 1.043c-.25-.133-.492-.25-.734-.36l.39-1.179a.4.4 0 1 0-.758-.25l-.378 1.137a11.849 11.849 0 0 0-.805-.258l.344-1.027a.4.4 0 0 0-.254-.508.395.395 0 0 0-.504.254l-.363 1.09a12.012 12.012 0 0 0-1.262-.196v-.765a.398.398 0 1 0-.797 0v.738c-.211.012-.578.043-1.055.117l-.152-.922a.396.396 0 0 0-.461-.328.4.4 0 0 0-.328.461l.156.938c-.43.097-.902.23-1.402.41l-.38-1.14a.4.4 0 1 0-.76.253l.394 1.18c-.344.152-.696.328-1.047.527l-.61-1.215a.4.4 0 0 0-.535-.18.403.403 0 0 0-.18.54l.641 1.28c-.351.243-.699.517-1.035.821l-.965-.965a.4.4 0 0 0-.566.567l.957.957c-1.23 1.305-2.258 3.133-2.73 5.683-.008.032-.012.067-.016.098a1.21 1.21 0 0 0-.313-.047c-.883 0-1.574.953-1.574 2.172 0 1.215.691 2.168 1.574 2.168.164 0 .32-.039.473-.105a8.885 8.885 0 0 0 1.383 2.949c1.277 1.762 3.789 3.844 8.508 3.844.074 0 .144 0 .218-.004.074.004.149.004.219.004 4.719 0 7.23-2.082 8.508-3.844 1.152-1.586 1.738-3.578 1.691-5.63.016 0 .028.005.043.005.09 0 .18-.008.27-.031.855-.204 1.312-1.293 1.031-2.477zM1.871 14.996a.477.477 0 0 1-.297.117c-.367 0-.773-.562-.773-1.367 0-.809.406-1.371.773-1.371a.44.44 0 0 1 .203.055c-.02.215-.03.425-.039.64v.04c-.004.18-.004.355 0 .53.004.055.004.11.008.165.008.144.016.289.031.43l.012.171c.02.172.043.348.07.52l.012.07zm18.363 3.293c-1.726 2.379-4.437 3.563-8.074 3.512h-.008c-3.636.054-6.347-1.133-8.074-3.512-.824-1.137-1.332-2.504-1.492-3.945-.004-.031-.004-.063-.008-.094-.02-.23-.035-.46-.039-.691-.004-.098 0-.2 0-.301a10.2 10.2 0 0 1 .047-.844c.027-.246.055-.496.102-.746.437-2.371 1.374-4.066 2.496-5.281l.492.496a.399.399 0 0 0 .566 0 .4.4 0 0 0 0-.567l-.492-.488c.273-.25.555-.473.84-.676l.21.426a.4.4 0 0 0 .536.18c.2-.098.277-.34.18-.535l-.25-.504c.316-.184.636-.348.949-.485l.164.493c.055.168.21.273.379.273a.491.491 0 0 0 .129-.02.402.402 0 0 0 .25-.507l-.18-.535c.461-.165.895-.286 1.29-.372l.116.7a.405.405 0 0 0 .395.336c.023 0 .043-.004.066-.008a.4.4 0 0 0 .328-.461l-.117-.711c.41-.059.73-.078.926-.086v.863a.398.398 0 1 0 .797 0v-.836c.27.024.613.067 1.012.145l-.192.566a.396.396 0 0 0 .254.504.37.37 0 0 0 .125.024.406.406 0 0 0 .383-.274l.21-.644c.259.07.528.156.81.253l-.18.536a.4.4 0 0 0 .379.527.397.397 0 0 0 .379-.273l.164-.493c.21.094.421.2.636.313l-.336.676a.397.397 0 0 0 .356.578.4.4 0 0 0 .36-.223l.312-.625c1.406.914 2.77 2.344 3.61 4.586l-.005.004.074.203c.102.293.192.586.274.883.012.039.023.074.031.11.078.304.152.613.211.929.047.266.082.535.105.8.008.048.012.09.016.137.172 2.067-.36 4.098-1.512 5.684zm2.465-5.965a.443.443 0 0 1-.176 0c0-.015-.003-.031-.003-.047-.028-.25-.063-.504-.11-.754a13.663 13.663 0 0 0-.195-.89c-.008-.035-.02-.07-.027-.106a17.305 17.305 0 0 0-.235-.789c-.004-.008-.004-.015-.008-.023a.322.322 0 0 1 .125-.055c.153-.035.301.027.399.086.3.188.558.594.672 1.066.183.786-.086 1.426-.442 1.512zm0 0"/>
    <path d="M7.242 7.898a.397.397 0 0 0-.426.375.398.398 0 0 0 .375.422c.528.035 1.051.309 1.442.754.168.192.3.403.398.621a2.815 2.815 0 0 0-1.058-.277 2.769 2.769 0 0 0-2.032.691.4.4 0 0 0 .532.602 1.951 1.951 0 0 1 1.449-.496c.531.035 1.02.273 1.371.676a.406.406 0 0 0 .43.113.395.395 0 0 0 .27-.352c.046-.738-.231-1.504-.759-2.105-.53-.606-1.257-.977-1.992-1.024zm0 0M16 7.398a2.806 2.806 0 0 0-2.8 2.801C13.2 11.742 14.456 13 16 13s2.8-1.258 2.8-2.8c0-1.544-1.257-2.802-2.8-2.802zm0 4.801c-1.105 0-2-.898-2-2 0-1.101.895-2 2-2 1.102 0 2 .899 2 2 0 1.102-.898 2-2 2zm0 0"/>
    <path d="M16.8 10.2a.802.802 0 0 1-1.6 0 .802.802 0 0 1 1.6 0zm0 0M13.543 14.945c-.496 0-.961.22-1.277.602a.398.398 0 1 0 .613.508.866.866 0 0 1 .664-.309.859.859 0 0 1 0 1.715.849.849 0 0 1-.547-.2.401.401 0 0 0-.562.055.398.398 0 0 0 .054.563c.188.156.414.266.649.324a.916.916 0 0 1 .168.156c.14.184.203.407.175.633a.862.862 0 0 1-.957.746.838.838 0 0 1-.57-.324.852.852 0 0 1-.183-.55.398.398 0 0 0-.387-.41c-.223.01-.406.167-.41.386a1.655 1.655 0 0 0 1.45 1.691c.07.008.14.016.21.016.363 0 .719-.125 1.012-.352a1.656 1.656 0 0 0 .469-2.043 1.657 1.657 0 0 0 1.085-1.55c0-.915-.742-1.657-1.656-1.657zm0 0"/>
</svg>
